X: 6615
T: Cavan Brigade, The
R: jig
M: 6/8
K: Cmajor
c|BGG AGF|ECD E2c|_BGG AGF|Gcd (3fed c|
BGF G2F|ECD E2F|Gcc edc|BGE F2F|
GAF G2F|ECD E2c|BGG AGF|Gcd (3fed c|
BGF GAF|ECD E2F|Gcc edc|BGE F2F|
|:Gcc (3fed c|BGA BGF|Gcc ecc|dBG FEF|
Gcc edc|BGA Bcd|egf dBG|GFE F2F:|

